svg/u1f50c.svg

<svg viewBox="0 0 128 128" xmlns="http://www.w3.org/2000/svg">
  <g>
    <g>
      <g>
        <g>
          <path d="M50.53,74.21l-5,5c-0.97,0.97-2.54,0.97-3.5,0L4.69,41.87c-0.97-0.97-0.97-2.54,0-3.5l5-5 c0.97-0.97,2.54-0.97,3.5,0l37.34,37.34C51.5,71.68,51.5,73.24,50.53,74.21z" fill="#C9C9C9"/>
          <path d="M79.23,45.51l-5,5c-0.97,0.97-2.54,0.97-3.5,0L33.39,13.17c-0.97-0.97-0.97-2.54,0-3.5l5-5 c0.97-0.97,2.54-0.97,3.5,0l37.34,37.34C80.2,42.97,80.2,44.54,79.23,45.51z" fill="#C9C9C9"/>
        </g>
        <rect height="6.66" fill="#9E9E9E" transform="matrix(0.7071 -0.7071 0.7071 0.7071 -34.428 42.5596)" width="12.02" x="28.15" y="59.51"/>
        <rect height="6.66" fill="#9E9E9E" transform="matrix(0.7071 -0.7071 0.7071 0.7071 -5.72 54.4508)" width="12.01" x="56.86" y="30.8"/>
      </g>
      <g>
        <g>
          <path d="M88.35,36.62l-51.7,51.7c-1.26,1.26-3.29,1.26-4.55,0l-8.26-8.26c-1.26-1.26-1.26-3.29,0-4.55 l51.7-51.7c1.26-1.26,3.29-1.26,4.55,0l8.26,8.26C89.6,33.33,89.6,35.36,88.35,36.62z" fill="#616161"/>
          <path d="M59.93,59.29L37.47,83.07c0,0,12.12,11.14,17.28,13.89c4.76,2.54,9.84,3.88,15.16,4.54 c2.02,0.25,4.98-0.1,6.85,0.81c2.23,1.08,1.85,2.56,3.05,4.58c2.32,3.9,6.53,4.81,11.38,2.91c4.33-1.7,17.55-14.91,19.25-19.25 c1.9-4.85,1.31-8.65-2.91-11.38c-1.97-1.27-3.49-0.82-4.58-3.05c-0.91-1.86-0.56-4.83-0.81-6.85c-0.66-5.32-2-10.4-4.54-15.16 C94.84,48.96,83.7,36.84,83.7,36.84L59.93,59.29z" fill="#616161"/>
        </g>
        <path d="M91.93,75.74c-0.02,0.34-0.02,0.73,0.23,0.96c0.21,0.19,0.53,0.19,0.81,0.15 c2.11-0.27,3.83-2,4.58-3.99s0.69-4.19,0.4-6.3c-0.88-6.41-3.86-12.52-8.38-17.16c-0.51-0.52-1.14-1.07-1.87-0.97 c-1.62,0.21-3.69,5.26-3.87,6.71c-0.32,2.64,2.18,4.05,3.63,6.03C90.52,65.34,92.19,70.56,91.93,75.74z" fill="#808080"/>
        <path d="M71.98,32.13c-0.57,1.85,2.29,6.83,4.56,8.65c1.71,1.37,3.1,1.03,4.16,0.46 c2.68-1.44,5.31-4.63,5.52-4.84c0.94-0.98,0.55-2.47-0.43-3.84c-2.34-3.26-4.71-5.5-5.59-6.46c-1.68-1.83-3.81-0.63-4.71,0.24 C73.55,28.23,72.54,30.29,71.98,32.13z" fill="#808080"/>
      </g>
      <path d="M122.86,115.37l-7.46,7.46c-1.55,1.55-3.37,1.68-5.68,0.16l-20.99-13.74 c-1.77-1.58-1.85-4.33-0.17-6.02l14.71-14.71c1.68-1.68,4.43-1.6,6.02,0.17l13.74,20.99 C124.39,112.21,124.41,113.82,122.86,115.37z" fill="#616161"/>
      <g>
        <path d="M113.71,96.84l-7.14,7.14c-0.87,0.87-0.87,2.29,0,3.16c0.87,0.87,2.29,0.87,3.16,0l7.02-7.02 l-2.43-3.71C114.11,96.52,113.9,96.66,113.71,96.84z" fill="#424242"/>
        <path d="M110.03,112.52c-0.87-0.87-2.29-0.87-3.16,0l-5.2,5.2l3.83,2.5l4.54-4.54 C110.91,114.81,110.91,113.39,110.03,112.52z" fill="#424242"/>
        <path d="M121.24,106.98l-5.84,5.84c-0.87,0.87-0.87,2.29,0,3.16c0.87,0.87,2.29,0.87,3.16,0l5.03-5 l-0.59-1.29L121.24,106.98z" fill="#424242"/>
      </g>
      <path d="M90.55,109.81c0,0,4.62-4.01,9.94-9.34s9.34-9.94,9.34-9.94c1.65,1.65-1.33,7.3-6.66,12.62 S92.2,111.45,90.55,109.81z" fill="#424242"/>
      <path d="M85.8,39.17l-46,46c0.94,0.84,2.12,1.87,3.4,2.98c6.6-1.58,16.99-8.74,26.25-19.18 C80.5,56.5,86.54,40,85.8,39.17z" fill="#424242"/>
      <path d="M79.91,98.98c-0.71,3.79,5.22,4.61,13.22-3.73c4.71-4.91,7.06-10.92,6.86-13.25 c-0.17-1.93-1.86-1.84-3.22-0.48c-1.5,1.5-3.63,4.03-5.19,5.48C83.37,94.64,80.39,96.43,79.91,98.98z" fill="#424242"/>
    </g>
    <path d="M101.94,93.38c2.76,0.75,6.38-3.92,6.98-6.26c0.37-1.44,0.21-3.55-1.03-4.53 c-2.01-1.58-3.61-0.68-4.72,0.62C101.67,84.98,99.19,92.64,101.94,93.38z" fill="#808080"/>
  </g>
</svg>

<svg viewBox="0 0 128 128" xmlns="http://www.w3.org/2000/svg">
  <defs/>
  <path d="M50.53,74.21 L45.53,79.21 C44.56,80.18 42.99,80.18 42.03,79.21 L4.69,41.87 C3.72,40.9 3.72,39.33 4.69,38.37 L9.69,33.37 C10.66,32.4 12.23,32.4 13.19,33.37 L50.53,70.71 C51.5,71.68 51.5,73.24 50.53,74.21 Z" fill="#C9C9C9"/>
  <path d="M79.23,45.51 L74.23,50.51 C73.26,51.48 71.69,51.48 70.73,50.51 L33.39,13.17 C32.42,12.2 32.42,10.63 33.39,9.67 L38.39,4.67 C39.36,3.7 40.93,3.7 41.89,4.67 L79.23,42.01 C80.2,42.97 80.2,44.54 79.23,45.51 Z" fill="#C9C9C9"/>
  <path d="M27.556,64.734 L36.056,56.235 L40.765,60.944 L32.266,69.444 L27.556,64.734 Z" fill="#9E9E9E"/>
  <path d="M56.264,36.024 L64.757,27.532 L69.466,32.241 L60.974,40.733 L56.264,36.024 Z" fill="#9E9E9E"/>
  <path d="M88.35,36.62 L36.65,88.32 C35.39,89.58 33.36,89.58 32.1,88.32 L23.84,80.06 C22.58,78.8 22.58,76.77 23.84,75.51 L75.54,23.81 C76.8,22.55 78.83,22.55 80.09,23.81 L88.35,32.07 C89.6,33.33 89.6,35.36 88.35,36.62 Z" fill="#616161"/>
  <path d="M59.93,59.29 L37.47,83.07 C37.47,83.07 49.59,94.21 54.75,96.96 C59.51,99.5 64.59,100.84 69.91,101.5 C71.93,101.75 74.89,101.4 76.76,102.31 C78.99,103.39 78.61,104.87 79.81,106.89 C82.13,110.79 86.34,111.7 91.19,109.8 C95.52,108.1 108.74,94.89 110.44,90.55 C112.34,85.7 111.75,81.9 107.53,79.17 C105.56,77.9 104.04,78.35 102.95,76.12 C102.04,74.26 102.39,71.29 102.14,69.27 C101.48,63.95 100.14,58.87 97.6,54.11 C94.84,48.96 83.7,36.84 83.7,36.84 L59.93,59.29 Z" fill="#616161"/>
  <path d="M91.93,75.74 C91.91,76.08 91.91,76.47 92.16,76.7 C92.37,76.89 92.69,76.89 92.97,76.85 C95.08,76.58 96.8,74.85 97.55,72.86 C98.3,70.87 98.24,68.67 97.95,66.56 C97.07,60.15 94.09,54.04 89.57,49.4 C89.06,48.88 88.43,48.33 87.7,48.43 C86.08,48.64 84.01,53.69 83.83,55.14 C83.51,57.78 86.01,59.19 87.46,61.17 C90.52,65.34 92.19,70.56 91.93,75.74 Z" fill="#808080"/>
  <path d="M71.98,32.13 C71.41,33.98 74.27,38.96 76.54,40.78 C78.25,42.15 79.64,41.81 80.7,41.24 C83.38,39.8 86.01,36.61 86.22,36.4 C87.16,35.42 86.77,33.93 85.79,32.56 C83.45,29.3 81.08,27.06 80.2,26.1 C78.52,24.27 76.39,25.47 75.49,26.34 C73.55,28.23 72.54,30.29 71.98,32.13 Z" fill="#808080"/>
  <path d="M122.86,115.37 L115.4,122.83 C113.85,124.38 112.03,124.51 109.72,122.99 L88.73,109.25 C86.96,107.67 86.88,104.92 88.56,103.23 L103.27,88.52 C104.95,86.84 107.7,86.92 109.29,88.69 L123.03,109.68 C124.39,112.21 124.41,113.82 122.86,115.37 Z" fill="#616161"/>
  <path d="M113.71,96.84 L106.57,103.98 C105.7,104.85 105.7,106.27 106.57,107.14 C107.44,108.01 108.86,108.01 109.73,107.14 L116.75,100.12 L114.32,96.41 C114.11,96.52 113.9,96.66 113.71,96.84 Z" fill="#424242"/>
  <path d="M110.03,112.52 C109.16,111.65 107.74,111.65 106.87,112.52 L101.67,117.72 L105.5,120.22 L110.04,115.68 C110.91,114.81 110.91,113.39 110.03,112.52 Z" fill="#424242"/>
  <path d="M121.24,106.98 L115.4,112.82 C114.53,113.69 114.53,115.11 115.4,115.98 C116.27,116.85 117.69,116.85 118.56,115.98 L123.59,110.98 L123,109.69 L121.24,106.98 Z" fill="#424242"/>
  <path d="M90.55,109.81 C90.55,109.81 95.17,105.8 100.49,100.47 C105.81,95.14 109.83,90.53 109.83,90.53 C111.48,92.18 108.5,97.83 103.17,103.15 C97.84,108.47 92.2,111.45 90.55,109.81 Z" fill="#424242"/>
  <path d="M85.8,39.17 L39.8,85.17 C40.74,86.01 41.92,87.04 43.2,88.15 C49.8,86.57 60.19,79.41 69.45,68.97 C80.5,56.5 86.54,40 85.8,39.17 Z" fill="#424242"/>
  <path d="M79.91,98.98 C79.2,102.77 85.13,103.59 93.13,95.25 C97.84,90.34 100.19,84.33 99.99,82 C99.82,80.07 98.13,80.16 96.77,81.52 C95.27,83.02 93.14,85.55 91.58,87 C83.37,94.64 80.39,96.43 79.91,98.98 Z" fill="#424242"/>
  <path d="M101.94,93.38 C104.7,94.13 108.32,89.46 108.92,87.12 C109.29,85.68 109.13,83.57 107.89,82.59 C105.88,81.01 104.28,81.91 103.17,83.21 C101.67,84.98 99.19,92.64 101.94,93.38 Z" fill="#808080"/>
</svg>
